icons/cloud-download.svg

<svg xmlns="http://www.w3.org/2000/svg" viewBox="0 0 24 24"><path fill="#64b5f6" d="M6.5 20q-2.28 0-3.89-1.57Q1 16.85 1 14.58q0-1.95 1.17-3.48 1.18-1.53 3.08-1.95.58-2.02 2.14-3.4Q8.95 4.38 11 4.08v8.07L9.4 10.6 8 12l4 4 4-4-1.4-1.4-1.6 1.55V4.08q2.58.35 4.29 2.31T19 11q1.73.2 2.86 1.5 1.14 1.28 1.14 3 0 1.88-1.31 3.19T18.5 20Z"/></svg>

<!--
  - The MIT License (MIT)
  -
  - Copyright (c) 2015-2024 Elior "Mallowigi" Boukhobza
  -
  - Permission is hereby granted, free of charge, to any person obtaining a copy
  - of this software and associated documentation files (the "Software"), to deal
  - in the Software without restriction, including without limitation the rights
  - to use, copy, modify, merge, publish, distribute, sublicense, and/or sell
  - copies of the Software, and to permit persons to whom the Software is
  - furnished to do so, subject to the following conditions:
  -
  - The above copyright notice and this permission notice shall be included in all
  - copies or substantial portions of the Software.
  -
  - THE SOFTWARE IS PROVIDED "AS IS", WITHOUT WARRANTY OF ANY KIND, EXPRESS OR
  - IMPLIED, INCLUDING BUT NOT LIMITED TO THE WARRANTIES OF MERCHANTABILITY,
  - FITNESS FOR A PARTICULAR PURPOSE AND NONINFRINGEMENT. IN NO EVENT SHALL THE
  - AUTHORS OR COPYRIGHT HOLDERS BE LIABLE FOR ANY CLAIM, DAMAGES OR OTHER
  - LIABILITY, WHETHER IN AN ACTION OF CONTRACT, TORT OR OTHERWISE, ARISING FROM,
  - OUT OF OR IN CONNECTION WITH THE SOFTWARE OR THE USE OR OTHER DEALINGS IN THE
  - SOFTWARE.
  -
  -->


<svg  xmlns="http://www.w3.org/2000/svg" viewBox="0 0 24 24" width="16px" height="16px">
  <path fill="#64B5F6"
        d="M6.5 20Q4.22 20 2.61 18.43 1 16.85 1 14.58 1 12.63 2.17 11.1 3.35 9.57 5.25 9.15 5.83 7.13 7.39 5.75 8.95 4.38 11 4.08V12.15L9.4 10.6L8 12L12 16L16 12L14.6 10.6L13 12.15V4.08Q15.58 4.43 17.29 6.39 19 8.35 19 11 20.73 11.2 21.86 12.5 23 13.78 23 15.5 23 17.38 21.69 18.69 20.38 20 18.5 20Z"/>
</svg>
